build/assets/img/stage-developers/image-element-7.svg

<svg width="85" height="62" viewBox="0 0 85 62" fill="none" xmlns="http://www.w3.org/2000/svg">
<g filter="url(#filter0_di)">
<path d="M76.9468 1.99997H3.48505C2.68591 1.99997 2.03809 2.64262 2.03809 3.43538V54.5646C2.03809 55.3573 2.68592 56 3.48505 56H76.9468C77.7459 56 78.3937 55.3573 78.3937 54.5646V3.43538C78.3937 2.64262 77.7459 1.99997 76.9468 1.99997Z" fill="url(#paint0_linear)"/>
<path d="M79 10.0029C79 10.1947 61.7572 10.3353 40.5064 10.3353C19.2557 10.3353 2 10.1947 2 10.0029C2 9.81118 19.2428 9.67056 40.5064 9.67056C61.77 9.67056 79 9.83675 79 10.0029Z" fill="white"/>
<path d="M14.7321 6.96045C15.3015 6.96045 15.7631 6.5598 15.7631 6.06557C15.7631 5.57133 15.3015 5.17068 14.7321 5.17068C14.1627 5.17068 13.7012 5.57133 13.7012 6.06557C13.7012 6.5598 14.1627 6.96045 14.7321 6.96045Z" fill="white"/>
<path d="M6.46651 6.96045C7.03589 6.96045 7.49747 6.5598 7.49747 6.06557C7.49747 5.57133 7.03589 5.17068 6.46651 5.17068C5.89712 5.17068 5.43555 5.57133 5.43555 6.06557C5.43555 6.5598 5.89712 6.96045 6.46651 6.96045Z" fill="white"/>
<path d="M10.8483 6.96045C11.4177 6.96045 11.8793 6.5598 11.8793 6.06557C11.8793 5.57133 11.4177 5.17068 10.8483 5.17068C10.279 5.17068 9.81738 5.57133 9.81738 6.06557C9.81738 6.5598 10.279 6.96045 10.8483 6.96045Z" fill="white"/>
<path d="M30.2732 31.5695C30.2732 34.8039 27.9149 36.7726 24.0101 36.7726H21.3332C20.5341 36.7726 19.8863 37.4153 19.8863 38.208V40.7485C19.8863 41.2074 19.5112 41.5794 19.0486 41.5794C18.586 41.5794 18.2109 41.2074 18.2109 40.7485V27.7634C18.2109 26.9707 18.8588 26.328 19.6579 26.328H24.0101C27.9149 26.328 30.2732 28.284 30.2732 31.5695ZM28.6623 31.5695C28.6623 29.1277 27.0386 27.7343 23.9586 27.7343H21.3332C20.5341 27.7343 19.8863 28.3769 19.8863 29.1697V33.9693C19.8863 34.7621 20.5341 35.4047 21.3332 35.4047H23.9586C27.0386 35.328 28.6623 33.9346 28.6623 31.5695Z" fill="white"/>
<path d="M45.7836 26.3278C46.2142 26.3278 46.5632 26.6741 46.5632 27.1012V40.7802C46.5632 41.2074 46.2142 41.5536 45.7836 41.5536C45.353 41.5536 45.0039 41.2074 45.0039 40.7802V35.9578C45.0039 35.165 44.3561 34.5224 43.5569 34.5224H36.85C36.0509 34.5224 35.4031 35.165 35.4031 35.9578V40.7482C35.4031 41.193 35.0396 41.5536 34.5912 41.5536C34.1428 41.5536 33.7793 41.193 33.7793 40.7482V27.1332C33.7793 26.6884 34.1428 26.3278 34.5912 26.3278C35.0396 26.3278 35.4031 26.6884 35.4031 27.1332V31.6679C35.4031 32.4607 36.0509 33.1033 36.85 33.1033H43.5569C44.3561 33.1033 45.0039 32.4607 45.0039 31.6679V27.1012C45.0039 26.6741 45.353 26.3278 45.7836 26.3278Z" fill="white"/>
<path d="M63.6123 31.5693C63.6123 34.8036 61.2539 36.7724 57.3492 36.7724H54.6723C53.8731 36.7724 53.2253 37.415 53.2253 38.2078V40.7738C53.2253 41.2186 52.8618 41.5792 52.4134 41.5792C51.9651 41.5792 51.6016 41.2186 51.6016 40.7738V27.7632C51.6016 26.9704 52.2494 26.3278 53.0485 26.3278H57.3492C61.2539 26.3278 63.6123 28.2837 63.6123 31.5693ZM62.0272 31.5693C62.0272 29.1275 60.4034 27.734 57.3363 27.734H54.6723C53.8732 27.734 53.2253 28.3767 53.2253 29.1694V33.9691C53.2253 34.7618 53.8731 35.4045 54.6723 35.4045H57.2976C60.3647 35.3278 62.0272 33.9343 62.0272 31.5693Z" fill="white"/>
</g>
<defs>
<filter id="filter0_di" x="0" y="-3.05176e-05" width="85" height="62" filterUnits="userSpaceOnUse" color-interpolation-filters="sRGB">
<feFlood flood-opacity="0" result="BackgroundImageFix"/>
<feColorMatrix in="SourceAlpha" type="matrix" values="0 0 0 0 0 0 0 0 0 0 0 0 0 0 0 0 0 0 127 0"/>
<feOffset dx="2" dy="2"/>
<feGaussianBlur stdDeviation="2"/>
<feColorMatrix type="matrix" values="0 0 0 0 0 0 0 0 0 0 0 0 0 0 0 0 0 0 0.15 0"/>
<feBlend mode="normal" in2="BackgroundImageFix" result="effect1_dropShadow"/>
<feBlend mode="normal" in="SourceGraphic" in2="effect1_dropShadow" result="shape"/>
<feColorMatrix in="SourceAlpha" type="matrix" values="0 0 0 0 0 0 0 0 0 0 0 0 0 0 0 0 0 0 127 0" result="hardAlpha"/>
<feOffset dx="-2" dy="-2"/>
<feGaussianBlur stdDeviation="2"/>
<feComposite in2="hardAlpha" operator="arithmetic" k2="-1" k3="1"/>
<feColorMatrix type="matrix" values="0 0 0 0 0 0 0 0 0 0 0 0 0 0 0 0 0 0 0.2 0"/>
<feBlend mode="normal" in2="shape" result="effect2_innerShadow"/>
</filter>
<linearGradient id="paint0_linear" x1="76.04" y1="29" x2="4.33046" y2="26.8229" gradientUnits="userSpaceOnUse">
<stop stop-color="#A62E41"/>
<stop offset="1" stop-color="#E13152"/>
</linearGradient>
</defs>
</svg>

<svg width="85" height="62" fill="none" xmlns="http://www.w3.org/2000/svg"><g filter="url(#filter0_di)"><path d="M76.947 2H3.485c-.8 0-1.447.643-1.447 1.435v51.13c0 .792.648 1.435 1.447 1.435h73.462c.799 0 1.447-.643 1.447-1.435V3.435c0-.792-.648-1.435-1.447-1.435z" fill="url(#paint0_linear)"/><path d="M79 10.003c0 .192-17.243.332-38.494.332-21.25 0-38.506-.14-38.506-.332s17.243-.332 38.506-.332C61.77 9.67 79 9.837 79 10.003zM14.732 6.96c.57 0 1.031-.4 1.031-.894 0-.495-.461-.895-1.03-.895-.57 0-1.032.4-1.032.895 0 .494.462.894 1.031.894zm-8.265 0c.569 0 1.03-.4 1.03-.894 0-.495-.461-.895-1.03-.895-.57 0-1.031.4-1.031.895 0 .494.461.894 1.03.894zm4.381 0c.57 0 1.031-.4 1.031-.894 0-.495-.461-.895-1.03-.895-.57 0-1.032.4-1.032.895 0 .494.462.894 1.031.894zm19.425 24.61c0 3.234-2.358 5.203-6.263 5.203h-2.677a1.44 1.44 0 00-1.447 1.435v2.54c0 .46-.375.831-.837.831a.834.834 0 01-.838-.83V27.762c0-.792.648-1.435 1.447-1.435h4.352c3.905 0 6.263 1.956 6.263 5.242zm-1.61 0c0-2.442-1.624-3.836-4.704-3.836h-2.626c-.799 0-1.447.643-1.447 1.436v4.8c0 .792.648 1.435 1.447 1.435h2.626c3.08-.077 4.703-1.47 4.703-3.835zm17.121-5.242c.43 0 .78.346.78.773v13.68a.776.776 0 01-.78.773.777.777 0 01-.78-.774v-4.822c0-.793-.648-1.436-1.447-1.436H36.85c-.8 0-1.447.643-1.447 1.436v4.79a.809.809 0 01-.812.806.809.809 0 01-.812-.806V27.133c0-.445.364-.805.812-.805.449 0 .812.36.812.805v4.535a1.44 1.44 0 001.447 1.435h6.707c.8 0 1.447-.642 1.447-1.435V27.1c0-.427.349-.773.78-.773zm17.828 5.242c0 3.234-2.358 5.202-6.263 5.202h-2.677c-.799 0-1.447.643-1.447 1.436v2.566a.809.809 0 01-.812.805.809.809 0 01-.811-.805v-13.01a1.44 1.44 0 011.447-1.436h4.3c3.905 0 6.263 1.956 6.263 5.241zm-1.585 0c0-2.442-1.624-3.836-4.69-3.836h-2.665c-.799 0-1.447.643-1.447 1.435v4.8a1.44 1.44 0 001.447 1.435h2.626c3.067-.076 4.73-1.47 4.73-3.835z" fill="#fff"/></g><defs><linearGradient id="paint0_linear" x1="76.04" y1="29" x2="4.33" y2="26.823" gradientUnits="userSpaceOnUse"><stop stop-color="#A62E41"/><stop offset="1" stop-color="#E13152"/></linearGradient><filter id="filter0_di" x="0" y="0" width="85" height="62" filterUnits="userSpaceOnUse" color-interpolation-filters="sRGB"><feFlood flood-opacity="0" result="BackgroundImageFix"/><feColorMatrix in="SourceAlpha" values="0 0 0 0 0 0 0 0 0 0 0 0 0 0 0 0 0 0 127 0"/><feOffset dx="2" dy="2"/><feGaussianBlur stdDeviation="2"/><feColorMatrix values="0 0 0 0 0 0 0 0 0 0 0 0 0 0 0 0 0 0 0.15 0"/><feBlend in2="BackgroundImageFix" result="effect1_dropShadow"/><feBlend in="SourceGraphic" in2="effect1_dropShadow" result="shape"/><feColorMatrix in="SourceAlpha" values="0 0 0 0 0 0 0 0 0 0 0 0 0 0 0 0 0 0 127 0" result="hardAlpha"/><feOffset dx="-2" dy="-2"/><feGaussianBlur stdDeviation="2"/><feComposite in2="hardAlpha" operator="arithmetic" k2="-1" k3="1"/><feColorMatrix values="0 0 0 0 0 0 0 0 0 0 0 0 0 0 0 0 0 0 0.2 0"/><feBlend in2="shape" result="effect2_innerShadow"/></filter></defs></svg>
